!!!OTL: Zu Arel op der Knippchen (1-25), S. 67
!!!id: K0099
**kern
*clefG2
*k[f#]
*G:
{8d
=1
8.g
16f#
8.g
16a
=2
4b
8g
8b
=3
8a
8g
8f#
8a
=4
4g}
8r
=5
{8d
=6
8.g
16f#
8.g
16a
=7
4b
8g
8b
=8
8a
8g
8f#
8a
=9
4g}
8r
=10
{16b
16cc
=11
4dd
4dd
=12
16ee
16dd
16cc
16b
8cc
16a
16b
=13
4cc
4cc
=14
16dd
16cc
16b
16a
8b}
=15
{8b
=16
8a
8g
8f#
8a
=17
4g
8r
8b
=18
8a
8g
8f#
8a
=19
4g}
8r
==
*-
!!!minrhy: 16
!!!meters: 2/4 ]  ZZ[4
!!!cut: Zu Arel op der Knippchen (1-25), S. 67
!!!reg: Luxemburg
!!!trd: KINTZELE, Guillaume: An der Ucht, Bd. 1, Luxemburg 1926
!!!rhy1: X_  X_.XX_.X  X__X_X_  X_X_X_X_  X__0_
!!!rhy2: X_  X_.XX_.X  X__X_X_  X_X_X_X_  X__0_
!!!key: K0099  16  G 2/4 ]  ZZ[4
!!!mod: HEPTATONIK IONISCH]  AMBITUS[9
!!!kad: 1131
!!!akz: 1321_1321_5645_2121_
!!!fot: 'a__a__b__c__
!!!for: 'a__a__b__c__
!!!fok: '^a_^a_M__\__
!! PHRAS[AUFTAKTIG]
!!!fkt: Trinklied
!! KINTZELE
!! PR[31] 2K[9] 2G[9] 3K[7] 3G[4] 4A[7] 4Ü[0] 5A[0] 6K[0] 6G[0]
!! 7K[0] 7G[0] 8A[0] MEHR[0] SI[36] ABS[45] SR[18] SP[18]
!! ST[16] 2k[9] 2g[9] 3k[7] 3g[4] 4d[4] 4ü[0] 5d[0] 6k[0] 6g[0]
!! 7k[0] 7g[0] 8d[0] mehr[0] si[33] dm[+3] sr[18] sp[16]
!! 1F[6] 2F[53] 3F[32] 4F[0] LF[0] 2P[6] 3P[2] 4P[0] TRI[0] DF[5] AB[47]
!! TF[0] U3K[0] U3[0] U4[0] U4Ü[0] U5[2] U6K[0] U6[0] U7K[0] U7[0]
!! N1[15] N2K[0] N2[13] N3K[0] N3[35] N4[17] N4Ü[0] N5[13] N6K[0] N6[0]
!!!n7k: 0] N7[0] O1[4] O2K[0] O2[0] O3K[0] O3[0] HÖ[0
